!! Isochronous pitch passage.
!! Inner-voice line. (?)
!! From Brahms, Quintet No. 1, 3rd movement, measure 38ff.
!! Second violin.
!! 3/2 meter
!! NOTE: Contains hemiolas in measures 44-45.
**kern	**metpos
*M3/2	*M3/2
*tb8	*tb8
=38	=38
8r	1
8r	4
8r	3
8r	4
8r	2
8r	4
8r	3
8r	4
8r	2
8b	4
8cc#	3
8dd#	4
=39	=39
8ee	1
8gg#	4
8ff#	3
8ee	4
8dd#	2
8ee	4
8cc#	3
8dd#	4
8b	2
8b	4
8cc#	3
8dd#	4
=40	=40
8ee	1
8bb	4
8gg#	3
8ee	4
8dd#	2
8ee	4
8cc#	3
8dd#	4
8b	2
8b	4
8cc#	3
8dd#	4
=41	=41
8ee	1
8dddn	4
8ccc#	3
8bb	4
8aa	2
8gg#	4
8ff#	3
8ee	4
8gg#	2
8ff#	4
8ee	3
8dd#	4
=42	=42
8ee	1
8gg#	4
8ff#	3
8ee	4
8ggn	2
8ffn	4
8ee	3
8gg	4
8ff	2
8ee	4
8gg	3
8ff	4
=43	=43
8ee	1
8dd	4
8ccn	3
8b	4
8a	2
8gn	4
8fn	3
8e	4
8g	2
8f	4
8e	3
8d#	4
=44	=44
8e	1
8g#	4
8f#	3
8e	4
8a	2
8f#	4
8e	3
8a	4
8f#	2
8e	4
8a	3
8f#	4
=45	=45
8e	1
8a#	4
8f#	3
8e	4
8b	2
8f#	4
8e	3
8b	4
8f#	2
8e	4
8b	3
8f#	4
=46	=46
8e	1
8ccn	4
8f#	3
8e	4
8ee	2
8ffn	4
8dd	3
8ee	4
8cc	2
8dd	4
8b	3
8cc	4
=47	=47
8a	1
8b	4
8gn	3
8a	4
8fn	2
8g	4
8e	3
8f	4
8d	2
8r	4
8r	3
8r	4
=48	=48
*-	*-
